X:0660
T:Taymouth House.
M:C|
L:1/8
Q:1/2=104
I: :: :: :: ::
Z:Jack Campin * www.campin.me.uk * 2009
K:A Mixolydian
ceea faea|faeg Tf2B2|(ceea) faea|feac TB2A2:|
ceec cAec|dffB  dBfB| ceeA  cAec|dfce TB2A2:|
ceea faea|faeg Tf2B2| ceea  faeg|faec  B2A2:|
ceAe cAec|dfBf  dBfB| ceAe  cAec|fdec TB2A2:|

